static/logos/ramp-glyph-color.svg

<svg width="50" height="50" viewBox="0 0 50 50" fill="none" xmlns="http://www.w3.org/2000/svg">
<g clip-path="url(#clip0_1_1364)">
<path d="M25 50C38.8071 50 50 38.8071 50 25C50 11.1929 38.8071 0 25 0C11.1929 0 0 11.1929 0 25C0 38.8071 11.1929 50 25 50Z" fill="#E0F01F"/>
<path d="M39.5073 36.3294V36.45L21.96 36.4562V36.3294C24.4904 34.9005 26.237 33.4448 27.8086 31.924H35.0138L39.5073 36.3294ZM35.1596 13.4773L30.7117 9.11458H30.5826C30.5826 9.11458 30.6576 17.2451 23.1898 24.6397C15.8824 31.8768 7.28906 31.8932 7.28906 31.8932V32.02L11.8202 36.4583C11.8202 36.4583 20.2885 36.5419 27.769 29.2047C35.2221 21.892 35.1596 13.4773 35.1596 13.4773Z" fill="black"/>
</g>
<defs>
<clipPath id="clip0_1_1364">
<rect width="50" height="50" fill="white"/>
</clipPath>
</defs>
</svg>

<svg xmlns="http://www.w3.org/2000/svg" width="64" height="64" fill="none" viewBox="0 0 50 50"><g clip-path="url(#a)"><path fill="#E0F01F" d="M25 50c13.807 0 25-11.193 25-25S38.807 0 25 0 0 11.193 0 25s11.193 25 25 25Z"/><path fill="#000" d="M39.507 36.33v.12l-17.547.006v-.127c2.53-1.428 4.277-2.884 5.849-4.405h7.205l4.493 4.405ZM35.16 13.476l-4.448-4.362h-.13s.076 8.13-7.392 15.525c-7.308 7.237-15.9 7.253-15.9 7.253v.127l4.53 4.438s8.468.084 15.949-7.253c7.453-7.313 7.39-15.728 7.39-15.728Z"/></g><defs><clipPath id="a"><path fill="#fff" d="M0 0h50v50H0z"/></clipPath></defs></svg>
